public/piece/icpieces/wQ.svg

<?xml version="1.0" standalone="yes"?>
<svg xmlns="http://www.w3.org/2000/svg" width="368" height="368">
<path style="fill:#000000; stroke:none;" d="M140 109C133.816 135.731 119.183 160.272 113 187C104.241 176.724 97.4949 164.242 90 153C86.578 147.867 80.9541 141.913 79.1034 136C77.9411 132.287 81.0334 129.329 82.1458 126C84.6475 118.514 82.3142 109.433 75.9568 104.638C61.6321 93.834 44.484 106.704 46.1049 123C46.6523 128.503 50.3466 133.17 55.0008 135.992C58.8932 138.351 62.3732 138.247 64.0965 143.019C68.7491 155.904 71.5704 169.778 75.1512 183C80.9359 204.359 86.8254 225.711 92.8596 247C93.9707 250.92 96.8111 256.756 95.3573 260.83C94.3197 263.738 91.2578 265.558 89.5131 268.015C85.3338 273.898 86.6016 281.611 92 286C88.1315 290.75 82.3336 295.259 80.0093 301C78.5066 304.712 79 309.082 79 313L79 336L290 336L290 314C290 310.056 290.45 305.757 289.005 302.004C286.753 296.152 280.636 291.009 276 287C280.683 281.595 283.051 274.44 278.487 268.015C276.368 265.032 272.522 262.947 272.322 258.961C272.11 254.757 274.284 249.99 275.421 246C277.695 238.023 279.712 229.973 282 222C286.863 205.056 291.614 188.043 296.116 171C298.599 161.597 300.405 150.992 304.249 142.059C306.093 137.774 310.511 137.781 313.996 135.347C320.407 130.87 323.307 123.656 321.945 116C319.204 100.588 298.148 95.4342 288.638 108.043C284.922 112.97 283.896 120.14 285.854 126C286.967 129.329 290.059 132.287 288.897 136C287.256 141.242 282.363 146.455 279.333 151C271.765 162.353 262.843 173.645 257 186C251.151 176.772 248.42 165.192 244.576 155C238.936 140.043 231.684 124.545 228 109C247.236 102.442 240.638 73.0803 221 73.0803C200.948 73.0803 194.358 102.322 214 109C207.803 124.976 201.624 140.966 195.576 157C192.28 165.74 187.587 174.777 186 184L182 184C180.413 174.777 175.72 165.74 172.424 157C166.376 140.966 160.197 124.976 154 109C173.642 102.322 167.052 73.0803 147 73.0803C127.362 73.0803 120.764 102.442 140 109z"/>
<path style="fill:#ffffff; stroke:none;" d="M145.015 83.6929C135.083 86.3886 138.553 102.812 148.996 100.384C160.089 97.8059 155.862 80.7491 145.015 83.6929M219.005 83.6157C208.156 86.1455 212.218 103.229 222.985 100.307C232.916 97.6117 229.446 81.1808 219.005 83.6157M61.044 111.746C50.9952 115.696 57.704 131.377 67.956 127.257C78.0055 123.218 70.9752 107.843 61.044 111.746M301.04 111.657C290.145 115.095 296.19 131.583 306.956 127.257C316.431 123.449 311.038 108.501 301.04 111.657M147 121C140.097 141.406 132.823 161.853 125.192 182C122.26 189.741 121.019 200.57 110.04 197.682C105.075 196.376 102.296 189.944 99.6667 186C92.7781 175.667 85.9449 165.295 79 155C78.5305 158.732 80.163 162.393 81.1157 166C82.8804 172.681 84.6845 179.355 86.5787 186C92.9022 208.184 99.8467 230.521 105 253L263 253C270.54 220.109 280.786 187.468 290 155C281.415 162.867 275.454 175.318 269 185C266.386 188.921 263.519 195.549 258.907 197.397C248.426 201.596 246.285 189.043 243.681 182C236.199 161.762 229.741 140.72 221 121C215.578 128.247 213.125 139.51 209.95 148C204.439 162.734 195.668 178.504 193 194L175 194C172.332 178.504 163.561 162.734 158.05 148C154.875 139.51 152.422 128.247 147 121M106 262C105.927 264.997 105.956 268.083 103.567 270.277C101.597 272.086 97.6358 272.661 97.6358 275.999C97.6358 279.347 101.623 279.763 103.567 281.584C105.947 283.814 105.927 286.984 106 290L262 290C262.073 286.984 262.052 283.814 264.433 281.584C266.377 279.763 270.364 279.347 270.364 275.999C270.364 272.661 266.403 272.086 264.433 270.277C262.044 268.083 262.073 264.997 262 262L106 262z"/>
<path style="fill:#000000; stroke:none;" d="M180.094 267.858C169.575 272.5 177.192 288.871 187.906 284.142C198.425 279.5 190.808 263.129 180.094 267.858z"/>
<path style="fill:#ffffff; stroke:none;" d="M89 326L280 326C280 317.843 282.812 304.521 273.995 300.028C270.293 298.141 265.027 299 261 299L234 299L137 299L107 299C103.006 299 97.6774 298.116 94.0193 300.028C86.0598 304.188 89 318.542 89 326z"/>
</svg>

<svg xmlns="http://www.w3.org/2000/svg" width="368" height="368"><path d="M140 109c-6.184 26.731-20.817 51.272-27 78-8.759-10.276-15.505-22.758-23-34-3.422-5.133-9.046-11.087-10.897-17-1.162-3.713 1.93-6.671 3.043-10 2.501-7.486.168-16.567-6.19-21.362C61.633 93.834 44.485 106.704 46.106 123c.547 5.503 4.242 10.17 8.896 12.992 3.892 2.359 7.372 2.255 9.096 7.027C68.749 155.904 71.57 169.778 75.15 183c5.785 21.359 11.674 42.711 17.709 64 1.11 3.92 3.951 9.756 2.497 13.83-1.037 2.908-4.1 4.728-5.844 7.185-4.18 5.883-2.911 13.596 2.487 17.985-3.868 4.75-9.666 9.259-11.99 15-1.503 3.712-1.01 8.082-1.01 12v23h211v-22c0-3.944.45-8.243-.995-11.996-2.252-5.852-8.369-10.995-13.005-15.004 4.683-5.405 7.051-12.56 2.487-18.985-2.119-2.983-5.965-5.068-6.165-9.054-.212-4.204 1.962-8.971 3.099-12.961 2.274-7.977 4.291-16.027 6.579-24 4.863-16.944 9.614-33.957 14.116-51 2.483-9.403 4.289-20.008 8.133-28.941 1.844-4.285 6.262-4.278 9.747-6.712 6.411-4.477 9.311-11.691 7.949-19.347-2.741-15.412-23.797-20.566-33.307-7.957-3.716 4.927-4.742 12.097-2.784 17.957 1.113 3.329 4.205 6.287 3.043 10-1.641 5.242-6.534 10.455-9.564 15-7.568 11.353-16.49 22.645-22.333 35-5.849-9.228-8.58-20.808-12.424-31-5.64-14.957-12.892-30.455-16.576-46 19.236-6.558 12.638-35.92-7-35.92-20.052 0-26.642 29.242-7 35.92-6.197 15.976-12.376 31.966-18.424 48-3.296 8.74-7.989 17.777-9.576 27h-4c-1.587-9.223-6.28-18.26-9.576-27-6.048-16.034-12.227-32.024-18.424-48 19.642-6.678 13.052-35.92-7-35.92-19.638 0-26.236 29.362-7 35.92z" style="fill:#000;stroke:none"/><path d="M145.015 83.693c-9.932 2.696-6.462 19.119 3.981 16.691 11.093-2.578 6.866-19.635-3.981-16.691m73.99-.077c-10.849 2.53-6.787 19.613 3.98 16.691 9.931-2.695 6.461-19.126-3.98-16.691m-157.961 28.13c-10.049 3.95-3.34 19.631 6.912 15.511 10.05-4.039 3.02-19.414-6.912-15.511m239.996-.089c-10.895 3.438-4.85 19.926 5.916 15.6 9.475-3.808 4.082-18.756-5.916-15.6M147 121c-6.903 20.406-14.177 40.853-21.808 61-2.932 7.741-4.173 18.57-15.152 15.682-4.965-1.306-7.744-7.738-10.373-11.682-6.889-10.333-13.722-20.705-20.667-31-.47 3.732 1.163 7.393 2.116 11 1.764 6.681 3.569 13.355 5.463 20 6.323 22.184 13.268 44.521 18.421 67h158c7.54-32.891 17.786-65.532 27-98-8.585 7.867-14.546 20.318-21 30-2.614 3.921-5.481 10.549-10.093 12.397-10.481 4.199-12.622-8.354-15.226-15.397-7.482-20.238-13.94-41.28-22.681-61-5.422 7.247-7.875 18.51-11.05 27-5.511 14.734-14.282 30.504-16.95 46h-18c-2.668-15.496-11.439-31.266-16.95-46-3.175-8.49-5.628-19.753-11.05-27m-41 141c-.073 2.997-.044 6.083-2.433 8.277-1.97 1.809-5.931 2.384-5.931 5.722 0 3.348 3.987 3.764 5.931 5.585 2.38 2.23 2.36 5.4 2.433 8.416h156c.073-3.016.052-6.186 2.433-8.416 1.944-1.821 5.931-2.237 5.931-5.585 0-3.338-3.961-3.913-5.931-5.722-2.389-2.194-2.36-5.28-2.433-8.277H106z" style="fill:#fff;stroke:none"/><path d="M180.094 267.858c-10.519 4.642-2.902 21.013 7.812 16.284 10.519-4.642 2.902-21.013-7.812-16.284z" style="fill:#000;stroke:none"/><path d="M89 326h191c0-8.157 2.812-21.479-6.005-25.972C270.293 298.141 265.027 299 261 299H107c-3.994 0-9.323-.884-12.98 1.028C86.06 304.188 89 318.542 89 326z" style="fill:#fff;stroke:none"/></svg>
